!!!OTL: 1075. Wasser und Wein.
!!!ARE: Europa, Mitteleuropa, Deutschland, Franken
!!!SCT: E1075
!!!TXL: @@DE
!!!YEM: Copyright 1995, estate of Helmut Schaffrath.
**kern	**text
*ICvox	*
*M3/8	*
*k[f#c#g#]	*
*A:	*
!LO:TX:a:t=Mäßig.	!
!LO:TX:a:t=Ditfurth, fränk. BL. II, 352.	!
{8a	Wir
=1	=1
8a	wol-
8cc#	-len
8cc#	eins
=2	=2
8cc#	ſin-
8b	-gen
8a	ſo
=3	=3
8b	hübſch
8dd	und
8dd	ſo
=4	=4
8ddL	ſein,
8cc#J}	.
{8b	ein
=5	=5
8cc#	Lied-
8cc#	-lein
16eeL	vom
16ff#J	.
=6	=6
8ee	Waſ-
8dd	-ſer,
8cc#	wohl
=7	=7
8cc#	auch
8b	von
8b	dem
=8	=8
4b;}	Wein,
{8a	ſie
=9	=9
8a	thä-
8cc#	-ten
(16cc#	mit
16ee)	ein-
=10	=10
8.ee	-an-
16dd	-der
8cc#	ja
=11	=11
4.ff#	ſtrei-
=12	=12
4ee}	-ten,
{8ee	der
=13	=13
8eeL	Wein
8ddJ	wollt
8cc#	das
=14	=14
8cc#	Waſ-
8ee	-ſer
8cc#	nicht
=15	=15
4.b/	lei-
=16	=16
4a}	-den.
==	==
!!!AGN: Wett - Lied, Streit zwischen Wasser und Wein
!!!ONB: ESAC (Essen Associative Code) Database: ERK3
!!!AMT: simple triple
!!!AIN: vox
!!!EED: Helmut Schaffrath
!!!EEV: 1.0
!!!GTL: Raethsel-, Wett- und Wunschlieder, nebst Luegenmaerchen.
!!!URL-scan: https://rosdok.uni-rostock.de/mcrviewer/recordIdentifier/rosdok_ppn745177999/iview2/phys_0028.iview2?x=0&y=58.82190416989033&scale=0.6479838709677419&rotation=0&layout=singlePageLayout
!!!ENC: Anna Maria Matuszewska
!!!EEV: 2024/12/23
*-	*-
